build/svg/cmd/lc_dbviewaliases.svg

<?xml version="1.0" encoding="UTF-8" standalone="no"?>
<svg
   xmlns:dc="http://purl.org/dc/elements/1.1/"
   xmlns:cc="http://creativecommons.org/ns#"
   xmlns:rdf="http://www.w3.org/1999/02/22-rdf-syntax-ns#"
   xmlns:svg="http://www.w3.org/2000/svg"
   xmlns="http://www.w3.org/2000/svg"
   xmlns:sodipodi="http://sodipodi.sourceforge.net/DTD/sodipodi-0.dtd"
   xmlns:inkscape="http://www.inkscape.org/namespaces/inkscape"
   viewBox="0 0 24 24"
   version="1.1"
   id="svg4"
   sodipodi:docname="lc_dbviewaliases.svg"
   inkscape:export-filename="/home/jupiter007/Libreoffice yaru theme fullcolor/build/cmd/lc_dbviewaliases.png"
   inkscape:export-xdpi="96"
   inkscape:export-ydpi="96"
   inkscape:version="0.92.5 (2060ec1f9f, 2020-04-08)">
  <metadata
     id="metadata10">
    <rdf:RDF>
      <cc:Work
         rdf:about="">
        <dc:format>image/svg+xml</dc:format>
        <dc:type
           rdf:resource="http://purl.org/dc/dcmitype/StillImage" />
      </cc:Work>
    </rdf:RDF>
  </metadata>
  <defs
     id="defs8" />
  <sodipodi:namedview
     pagecolor="#ffffff"
     bordercolor="#666666"
     borderopacity="1"
     objecttolerance="10"
     gridtolerance="10"
     guidetolerance="10"
     inkscape:pageopacity="0"
     inkscape:pageshadow="2"
     inkscape:window-width="1920"
     inkscape:window-height="1011"
     id="namedview6"
     showgrid="true"
     inkscape:zoom="9.8333333"
     inkscape:cx="1.0795797"
     inkscape:cy="15.348249"
     inkscape:window-x="0"
     inkscape:window-y="32"
     inkscape:window-maximized="1"
     inkscape:current-layer="svg4">
    <inkscape:grid
       type="xygrid"
       id="grid817" />
  </sodipodi:namedview>
  <path
     id="path828"
     d="M 12 3 A 4 4 0 0 0 8 7 A 4 4 0 0 0 12 11 A 4 4 0 0 0 16 7 A 4 4 0 0 0 12 3 z M 12 11.943359 C 8.1025415 11.943359 5.9999997 14.102542 6 18 L 6 20 L 18 20 L 18 18 C 18 14.102541 15.897459 11.943359 12 11.943359 z "
     style="opacity:0.6;fill:#000000;fill-opacity:1;stroke:#000000;stroke-width:2;stroke-linejoin:round;stroke-miterlimit:4;stroke-dasharray:none;stroke-opacity:1" />
  <path
     style="opacity:1;fill:#aee3f8;fill-opacity:1;stroke:none;stroke-width:1.88605523;stroke-linejoin:round;stroke-miterlimit:4;stroke-dasharray:none;stroke-opacity:1"
     d="M 12 3 A 4 4 0 0 0 8 7 A 4 4 0 0 0 12 11 A 4 4 0 0 0 16 7 A 4 4 0 0 0 12 3 z M 12 11.943359 C 8.1025415 11.943359 5.9999997 14.102542 6 18 L 6 20 L 18 20 L 18 18 C 18 14.102541 15.897459 11.943359 12 11.943359 z "
     id="path819" />
</svg>

<svg xmlns="http://www.w3.org/2000/svg" viewBox="0 0 24 24"><path d="M12 3a4 4 0 00-4 4 4 4 0 004 4 4 4 0 004-4 4 4 0 00-4-4zm0 8.943c-3.897 0-6 2.16-6 6.057v2h12v-2c0-3.897-2.103-6.057-6-6.057z" opacity=".6" stroke="#000" stroke-width="2" stroke-linejoin="round"/><path d="M12 3a4 4 0 00-4 4 4 4 0 004 4 4 4 0 004-4 4 4 0 00-4-4zm0 8.943c-3.897 0-6 2.16-6 6.057v2h12v-2c0-3.897-2.103-6.057-6-6.057z" fill="#aee3f8"/></svg>
